assets/logo.svg

<svg aria-hidden="true" width="53" height="54" viewBox="0 0 53 54" xmlns="http://www.w3.org/2000/svg">
	<path class="logo__image" fill-rule="evenodd" d="M26.4129 54C41.0003 54 52.8258 41.9116 52.8258 27C52.8258 12.0884 41.0003 0 26.4129 0C11.8255 0 0 12.0884 0 27C0 41.9116 11.8255 54 26.4129 54ZM42.0194 22.9488C42.1301 22.8343 42.3213 22.6822 42.593 22.4926C42.8704 22.3202 42.9893 22.1743 42.9496 22.055L42.5924 20.9813C42.5641 20.8962 42.5193 20.8453 42.4578 20.8286C42.4132 20.8061 42.2768 20.8155 42.0488 20.8567C41.726 20.8928 41.4866 20.9 41.3306 20.8783C41.1745 20.8564 41.0406 20.8175 40.929 20.7612C40.8172 20.705 40.6887 20.6261 40.5434 20.5246C40.3922 20.4059 40.2298 20.2532 40.0561 20.0665C39.8991 19.8739 39.7334 19.6274 39.559 19.3267C39.3955 19.0033 39.2373 18.6115 39.0842 18.1514L37.613 13.7291C37.4826 13.3372 37.3105 12.9596 37.0967 12.5967C36.8774 12.2167 36.6192 11.8882 36.3225 11.6111C36.02 11.317 35.679 11.1028 35.2996 10.9685C34.9312 10.8114 34.5216 10.7542 34.0707 10.7968C33.848 10.7982 33.5699 10.8569 33.2365 10.9728L31.9362 11.4248C31.7694 11.4828 31.7173 11.6055 31.7797 11.7929L32.2984 13.3522C32.3665 13.5567 32.4839 13.63 32.6506 13.5721L33.8008 13.1721C33.9842 13.1084 34.2161 13.2464 34.4966 13.5863C34.788 13.9031 35.0499 14.411 35.2824 15.1097L36.7282 19.4553C37.0173 20.3244 37.4027 21.0079 37.8846 21.5058C38.3665 22.0037 38.945 22.373 39.6202 22.6136C39.2342 23.2422 38.9987 23.9038 38.9137 24.5989C38.8397 25.2709 38.9473 26.0416 39.2364 26.9108L40.6907 31.2818C40.9231 31.9806 41.0183 32.5464 40.9764 32.9792C40.9344 33.4121 40.8217 33.6604 40.6383 33.7242L39.4881 34.124C39.3214 34.182 39.272 34.3132 39.3401 34.5177L39.8588 36.077C39.9268 36.2815 40.0443 36.3548 40.2109 36.2968L41.5362 35.836C41.853 35.7259 42.1084 35.5991 42.3024 35.4556C42.6852 35.2085 42.9757 34.9078 43.1741 34.5537C43.3892 34.1937 43.5317 33.8115 43.6016 33.407C43.6717 33.0023 43.6803 32.581 43.6276 32.1431C43.5805 31.7222 43.4918 31.3158 43.3614 30.9238L41.8817 26.476C41.7286 26.0159 41.6232 25.6151 41.5654 25.274C41.5188 24.91 41.5002 24.6028 41.5098 24.3522C41.5195 24.1017 41.5516 23.8909 41.6063 23.7197C41.661 23.5487 41.7159 23.4061 41.7709 23.2918C41.8369 23.1548 41.9197 23.0405 42.0194 22.9488ZM27.4925 38.1517L25.6921 38.7776C25.5087 38.8414 25.3528 38.8479 25.2244 38.7976C25.1183 38.7584 25.0647 38.6249 25.0633 38.3973L25.1021 16.7951C25.1065 16.5845 25.2087 16.4444 25.4088 16.3748L27.3842 15.6881C27.7677 15.5547 27.9661 15.6758 27.9794 16.0515L27.9485 37.5939C27.9329 37.7704 27.8808 37.8931 27.7921 37.962C27.7257 38.0421 27.6258 38.1053 27.4925 38.1517ZM12.4454 20.5963C12.262 20.66 12.1522 20.9169 12.1159 21.3669C12.0739 21.7997 12.1691 22.3654 12.4015 23.0641L13.8474 27.4097C14.1365 28.2789 14.2386 29.0609 14.1536 29.7559C14.0853 30.4451 13.8469 31.0982 13.4385 31.7156C14.1361 31.9674 14.7175 32.3452 15.1826 32.8489C15.6588 33.3297 16.0415 34.0047 16.3306 34.8739L17.7848 39.245C18.0173 39.9437 18.2792 40.4515 18.5707 40.7685C18.8621 41.0854 19.0995 41.2121 19.2829 41.1482L20.4333 40.7484C20.5999 40.6904 20.7172 40.7637 20.7853 40.9682L21.3041 42.5275C21.3722 42.732 21.3228 42.8632 21.156 42.9212L19.8307 43.382C19.514 43.4921 19.2359 43.5506 18.9965 43.5579C18.5458 43.6005 18.1278 43.5462 17.7427 43.3949C17.3742 43.2378 17.0416 43.0207 16.7449 42.7436C16.4481 42.4665 16.19 42.138 15.9705 41.758C15.7568 41.395 15.5848 41.0176 15.4543 40.6256L13.9746 36.1778C13.8215 35.7176 13.6578 35.3372 13.4833 35.0367C13.3199 34.7132 13.1597 34.4553 13.0026 34.2626C12.8455 34.0701 12.6944 33.923 12.549 33.8215C12.4036 33.7199 12.275 33.6411 12.1634 33.5848C12.0292 33.5173 11.8871 33.4813 11.7367 33.4765C11.5973 33.4489 11.3634 33.4447 11.035 33.4638C10.807 33.505 10.6623 33.5173 10.6009 33.5005C10.5562 33.4781 10.5197 33.4242 10.4914 33.339L10.1342 32.2655C10.1058 32.1802 10.1027 32.1147 10.1247 32.0691C10.1633 32.0177 10.2853 31.9371 10.4907 31.8277C10.7681 31.6553 10.9567 31.5232 11.0564 31.4315C11.1671 31.3169 11.2554 31.1912 11.3214 31.0542C11.3764 30.94 11.4313 30.7974 11.4859 30.6262C11.5349 30.438 11.5643 30.2188 11.5739 29.9682C11.5836 29.7177 11.5596 29.4219 11.5018 29.0806C11.4551 28.7167 11.3552 28.3046 11.2021 27.8445L9.73087 23.4223C9.60048 23.0303 9.51175 22.6239 9.46471 22.2029C9.41199 21.7649 9.42062 21.3436 9.49062 20.9391C9.55494 20.5174 9.68911 20.1381 9.89315 19.801C10.1082 19.4411 10.4071 19.1375 10.7898 18.8904C10.9839 18.7468 11.2393 18.62 11.556 18.5099L12.8813 18.0491C13.0481 17.9913 13.1626 18.056 13.2249 18.2434L13.7437 19.8027C13.8118 20.0072 13.7624 20.1385 13.5958 20.1964L12.4454 20.5963Z" fill="#616161"/>
</svg>

<svg aria-hidden="true" width="53" height="54" xmlns="http://www.w3.org/2000/svg"><path class="logo__image" fill-rule="evenodd" d="M26.413 54C41 54 52.826 41.912 52.826 27S41 0 26.413 0C11.825 0 0 12.088 0 27s11.825 27 26.413 27zm15.606-31.051c.111-.115.302-.267.574-.456.277-.173.396-.319.357-.438l-.358-1.074c-.028-.085-.073-.136-.134-.152-.045-.023-.181-.014-.41.028-.322.036-.561.043-.717.021a1.287 1.287 0 01-.402-.117 3.214 3.214 0 01-.386-.236 4.353 4.353 0 01-.487-.458 5.744 5.744 0 01-.497-.74 8.767 8.767 0 01-.475-1.176l-1.471-4.422a5.889 5.889 0 00-.516-1.132 4.23 4.23 0 00-.775-.986 2.793 2.793 0 00-1.022-.643 2.49 2.49 0 00-1.23-.171c-.222.001-.5.06-.834.176l-1.3.452c-.167.058-.219.18-.156.368l.518 1.56c.069.204.186.277.353.22l1.15-.4c.183-.065.415.073.696.413.291.317.553.825.785 1.524l1.446 4.345c.29.87.675 1.553 1.157 2.05.482.499 1.06.868 1.735 1.109a4.896 4.896 0 00-.706 1.985c-.074.672.033 1.443.322 2.312l1.455 4.37c.232.7.327 1.265.285 1.698-.042.433-.154.681-.338.745l-1.15.4c-.167.058-.216.19-.148.394l.519 1.559c.068.205.185.278.352.22l1.325-.461a2.89 2.89 0 00.766-.38 2.57 2.57 0 00.872-.902c.215-.36.358-.742.428-1.147s.078-.826.026-1.264a5.947 5.947 0 00-.267-1.22l-1.48-4.447a8.275 8.275 0 01-.316-1.202 5.727 5.727 0 01-.055-.922c.01-.25.042-.461.096-.632.055-.171.11-.314.165-.428a1.12 1.12 0 01.248-.343zM27.493 38.152l-1.8.626c-.184.063-.34.07-.469.02-.106-.04-.16-.173-.16-.4l.038-21.603a.42.42 0 01.307-.42l1.975-.687c.384-.133.582-.012.595.364l-.03 21.542c-.016.176-.068.3-.157.368a.66.66 0 01-.3.19zM12.444 20.596c-.183.064-.293.32-.33.77-.041.434.054 1 .287 1.698l1.445 4.346c.29.869.392 1.65.307 2.346a4.279 4.279 0 01-.716 1.96 4.33 4.33 0 011.745 1.133c.476.48.858 1.156 1.148 2.025l1.454 4.371c.232.699.494 1.207.786 1.524.291.316.528.443.712.38l1.15-.4c.167-.059.284.015.352.22l.52 1.559c.067.204.018.335-.149.393l-1.325.461c-.317.11-.595.169-.834.176a2.69 2.69 0 01-1.254-.163 3.413 3.413 0 01-.998-.651 4.233 4.233 0 01-.775-.986 5.9 5.9 0 01-.516-1.132l-1.48-4.448a6.185 6.185 0 00-.49-1.141 4.322 4.322 0 00-.481-.774 2.332 2.332 0 00-.454-.441 3.24 3.24 0 00-.386-.237 1.01 1.01 0 00-.426-.108c-.14-.028-.374-.032-.702-.013-.228.041-.373.053-.434.037-.045-.023-.081-.077-.11-.162l-.357-1.073c-.028-.086-.031-.151-.01-.197.04-.051.161-.132.367-.241a4.34 4.34 0 00.565-.396c.111-.115.2-.24.265-.378.055-.114.11-.257.165-.428a3.1 3.1 0 00.088-.658c.01-.25-.014-.546-.072-.887a6.662 6.662 0 00-.3-1.236L9.73 23.422a5.943 5.943 0 01-.266-1.22 4.339 4.339 0 01.026-1.263c.064-.422.198-.8.402-1.138.215-.36.514-.663.897-.91.194-.144.45-.271.766-.381l1.325-.46c.167-.059.282.006.344.193l.519 1.56c.068.204.018.335-.148.393l-1.15.4z" fill="#616161"/></svg>
